X:1
T:Thomas Tallis, 1567
T:66. 66. 66. 66. 
T:Psalm 52 No copyright. Transcribed from The Whole Psalter Translated , 1567; Two-staff transposition by B. C. Johnston, 2015.
%%score [ ( 1 2 ) ( 3 4 ) ]
L:1/8
M:10/4
K:G
V:1 treble nm="Soprano\nAlto" snm="S.\nA."
V:2 treble 
V:3 bass nm="Tenor\nBass" snm="T.\nB."
V:4 bass 
V:1
"^A. Original Key. S = Tenor, A = Counter, T = Meane, B = Bass." z2 G2 d3 A B2 c2 d4 | %1
 d2 e4 d2 d2 ^c2 d4 z4 || G2 d3 A B2 c2 d4 | f2 e4 d2 d2 c2 d4 z4 || G2 B3 A G2 c2 B4 | %5
 G2 c4 B2 A2 A2 G4 z4 || G2 B3 A G2 c2 B4 | d2 c4 B2 A2 A2 G16 | %8
[K:F]"^B. Moved down a step." z2 F2 c3 G A2 B2 c4 | c2 d4 c2 c2 =B2 c4 z4 || F2 c3 G A2 B2 c4 | %11
 e2 d4 c2 c2 B2 c4 z4 || F2 A3 G F2 B2 A4 | F2 B4 A2 G2 G2 F4 z4 | F2 A3 G F2 B2 A4 | %15
 c2 B4 A2 G2 G2 F16 |] %16
V:2
 z2 G2 B3 A G2 E2 F4 | A2 c4 BA G2 E2 F4 z4 || G2 B3 A G2 E2 F4 | A2 c4 BA G2 E2 F4 z4 || %4
 D2 G3 D E2 F2 G4 | B,2 E4 D2 D3 C B,4 z4 || D2 G3 D E2 F2 G4 | B2 A4 G2 G2 F2 x16 | %8
[K:F] z2 F2 A3 G F2 D2 E4 | G2 B4 AG F2 D2 E4 z4 || F2 A3 G F2 D2 E4 | G2 B4 AG F2 D2 E4 z4 || %12
 C2 F3 C D2 E2 F4 | A,2 D4 C2 C3 B, A,4 z4 | C2 F3 C D2 E2 F4 | A2 G4 F2 x20 |] %16
V:3
 z2 D2 G,3 D D2 C2 A,4 | A,2 A,4 F,2 G,2 G,2 A,4 z4 || B,2 G,3 D D2 C2 C4 | %3
 A,2 A,4 F,2 G,2 G,2 A,4 z4 || B,2 D3 A, B,2 C2 D4 | B,2 E4 D2 D3 C B,4 z4 || B,2 D3 A, B,2 C2 D4 | %7
 B,2 E4 D2 D2 D2 B,16 |[K:F] z2 C2 F,3 C C2 B,2 G,4 | G,2 G,4 E,2 F,2 F,2 G,4 z4 || %10
 A,2 F,3 C C2 B,2 B,4 | G,2 G,4 E,2 F,2 F,2 G,4 z4 || A,2 C3 G, A,2 B,2 C4 | %13
 A,2 D4 C2 C3 B, A,4 z4 | A,2 C3 G, A,2 B,2 C4 | A,2 D4 C2 C2 C2 A,16 |] %16
V:4
 z2 G,2 G,3 F, G,2 A,2 D,4 | D,2 A,,4 D,2 E,2 E,2 D,4 z4 || G,2 G,3 F, G,2 A,2 D,4 | %3
 D,2 A,,4 D,2 E,2 E,2 D,4 z4 || G,2 G,3 F, E,2 A,2 G,4 | G,2 C,4 G,,2 D,2 D,2 G,,4 z4 || %6
 G,2 G,3 F, E,2 A,2 G,4 | G,,2 C,4 G,,2 D,2 D,2 G,,16 |[K:F] z2 F,2 F,3 E, F,2 G,2 C,4 | %9
 C,2 G,,4 C,2 D,2 D,2 C,4 z4 || F,2 F,3 E, F,2 G,2 C,4 | C,2 G,,4 C,2 D,2 D,2 C,4 z4 || %12
 F,2 F,3 E, D,2 G,2 F,4 | F,2 B,,4 F,,2 C,2 C,2 F,,4 z4 | F,2 F,3 E, D,2 G,2 F,4 | %15
 F,,2 B,,4 F,,2 C,2 C,2 F,,16 |] %16

